X: 1
T: The High Road To Linton
R: reel
M: 4/4
L: 1/8
K: Amaj
|:Ac ce a2 ae|fe fg a2 a2|Ac ce a2 ae|fa ec B2 A2:|
|:ce ea fd df|ec ce d/c/2B B2|ce ea fd df|ea ec B2 A2:||


Tune 1118	Setting 4161

